X: 20012
Q: "And.e"
M: C
L: 1/8
K: G
d>edB e>fge | d>BAB G2zd({ef} |\
g)>fga (gf)(ed) | e>dg>B d2zd |
g>fga {a}g>f {f}e>d | ed{d}cB {^d}e2 (3(def) |\
gf{f}e>d ~e>fHg {ab}({efgf}{agf}e) | (d<B)TA>B {A}G2z |]


